X: 65
T:Swannee
% Nottingham Music Database
S:Kevin Briggs, via EF
M:4/4
L:1/4
K:D
DE |"D"F2 FD|"A7"E2 EC|"D"D2 "A7"E2||"D"F4|"A7"ED FE|"D"D2 d2|"G"Bd -d2|"D"A4|\
"Bm"F2 D2|
"E7"Ed cB|"A7"AG FE|"D"F4|"A7"ED FE|"D"D2 d2|"G"Bd -d2|"D"A2 FD|"A7"E2 FE|\
"D"D4-|"D"D2 ||
DE |"D"FF FF|"D"FE DE|"D"FF FF|"D"F2 GF|"A7"EE EE|"A7"EF GA|"A7"EG FE|
"D"D2 "A7"FG|"D"A2 d2|"D7"A3F|"G"GF GA|"G"B2 cB|"A7"A2 cB|"A7"A2 cB|"A7"AG FE|\
"D"D2 :|


